X: 2045
T: Ashplant, The
R: reel
M: 4/4
K: Dmajor
|:BE E2 BAGA|BEED G3 A|B2 BA Bcde|gedB A2 GA:|
|:B2 eBfBeB|B2 ed BAGA|1 B2 eB g2 gb|aged B2 GA:|2 B2 de g2 af|gedB A2 GA||

